contributed-vectors/samsung_tips.svg

<svg xmlns="http://www.w3.org/2000/svg" xml:space="preserve" style="fill-rule:evenodd;clip-rule:evenodd;stroke-linejoin:round;stroke-miterlimit:2" viewBox="0 0 192 192"><path d="M164.5 21.5c0-5.519-4.481-10-10-10h-133c-5.519 0-10 4.481-10 10v133c0 5.519 4.481 10 10 10h133c5.519 0 10-4.481 10-10v-133Z" style="fill:#f8c18c" transform="translate(8 8)"/><circle cx="96" cy="83.159" r="26.292" style="fill:#fff" transform="matrix(.90553 0 0 .90553 9.07 11.304)"/><path d="M84.76 108.387h22.918v6.903H84.76z" style="fill:#fff" transform="matrix(.90553 0 0 1.19208 8.87 -23.052)"/><path d="M84.541 127.378v-5.811h22.918v5.825c0 3.215-5.135 5.826-11.459 5.826s-11.459-2.611-11.459-5.826v-.014Z" style="fill:#fff" transform="matrix(.90553 0 0 .90553 9.07 8.569)"/></svg>

<?xml version="1.0" encoding="UTF-8" standalone="no"?>
<!DOCTYPE svg PUBLIC "-//W3C//DTD SVG 1.1//EN" "http://www.w3.org/Graphics/SVG/1.1/DTD/svg11.dtd">
<svg width="100%" height="100%" viewBox="0 0 192 192" version="1.1" xmlns="http://www.w3.org/2000/svg" xmlns:xlink="http://www.w3.org/1999/xlink" xml:space="preserve" xmlns:serif="http://www.serif.com/" style="fill-rule:evenodd;clip-rule:evenodd;stroke-linejoin:round;stroke-miterlimit:2;">
    <g id="Layer1">
        <g transform="matrix(1,0,0,1,8,8)">
            <path d="M164.5,21.5C164.5,15.981 160.019,11.5 154.5,11.5L21.5,11.5C15.981,11.5 11.5,15.981 11.5,21.5L11.5,154.5C11.5,160.019 15.981,164.5 21.5,164.5L154.5,164.5C160.019,164.5 164.5,160.019 164.5,154.5L164.5,21.5Z" style="fill:rgb(248,193,140);"/>
        </g>
        <g transform="matrix(0.905527,0,0,0.905527,9.0694,9.98548)">
            <g transform="matrix(1,0,0,1,0,1.45636)">
                <circle cx="96" cy="83.159" r="26.292" style="fill:white;"/>
            </g>
            <g transform="matrix(1,0,0,1.31645,-0.219194,-36.484)">
                <rect x="84.76" y="108.387" width="22.918" height="6.903" style="fill:white;"/>
            </g>
            <g transform="matrix(1,0,0,1,0,-1.56444)">
                <path d="M84.541,127.378L84.541,127.378L84.541,121.567L107.459,121.567L107.459,127.378L107.459,127.378L107.459,127.392C107.459,130.607 102.324,133.218 96,133.218C89.676,133.218 84.541,130.607 84.541,127.392L84.541,127.378Z" style="fill:white;"/>
            </g>
        </g>
    </g>
</svg>
